X: 27424
T: Moll Roe
R: slip jig
M: 9/8
K: Gmajor
|:DGG GAG FGA|BAB GAB c3|DGG GAG FGA|1 BdB cAF G3:|2 B/c/dB cAF GBc||
d3 cAG FED|Add cAB c3|ded cAG FED|B/c/dB cAF GBc|
d3 cAG FED|Add cAB c3|ded cAG FED|1 BdB cAG FED:|2 B/c/dB cAF G3||

